material/.icons/material/check-underline-circle.svg

<svg xmlns="http://www.w3.org/2000/svg" viewBox="0 0 24 24"><path d="M12 2A10 10 0 002 12a10 10 0 0010 10 10 10 0 0010-10A10 10 0 0012 2m5 16H7v-2h10v2m-6.7-4L7 10.7l1.4-1.4 1.9 1.9 5.3-5.3L17 7.3 10.3 14z"/></svg>

<?xml version="1.0" encoding="UTF-8"?><!DOCTYPE svg PUBLIC "-//W3C//DTD SVG 1.1//EN" "http://www.w3.org/Graphics/SVG/1.1/DTD/svg11.dtd"><svg xmlns="http://www.w3.org/2000/svg" xmlns:xlink="http://www.w3.org/1999/xlink" version="1.1" id="mdi-check-underline-circle" width="24" height="24" viewBox="0 0 24 24"><path d="M12,2A10,10 0 0,0 2,12A10,10 0 0,0 12,22A10,10 0 0,0 22,12A10,10 0 0,0 12,2M17,18H7V16H17V18M10.3,14L7,10.7L8.4,9.3L10.3,11.2L15.6,5.9L17,7.3L10.3,14Z" /></svg>
